X:148
T:Reel
O:No 148 William Clarke of Feltwell
M:4/4
L:1/8
K:G
B2{d}}cB/c/ d2g2|(f/g/a) dg (f/g/a) d>c|B2 {d}c/B/c d2c'2}|(3bag (3fga bgg2:||
g3d BGBd|gbag faab|c'abg afge| f2{a}gf/g/} afed|g3d BGBd| gbag faab|aabg afge| dgfa bg g2:||

